svg/fluentui-system-icons/ic_fluent_math_formula_20_regular.svg

<svg width="20" height="20" viewBox="0 0 20 20" fill="none" xmlns="http://www.w3.org/2000/svg">
<path d="M9.67705 3.0903C9.50006 3.05491 9.28604 3.05016 8.97355 3.0946C8.46418 3.17361 8.10831 3.42049 7.85921 3.77499C7.60328 4.13919 7.447 4.63831 7.39993 5.22192C7.39722 5.41156 7.3636 6.09257 7.31458 7.00001H9.5C9.77614 7.00001 10 7.22387 10 7.50001C10 7.77616 9.77614 8.00001 9.5 8.00001H7.2595C7.13358 10.2496 6.95964 13.1453 6.89864 13.9384L6.89839 13.9415L6.89259 14.0112C6.8452 14.583 6.78881 15.2633 6.58894 15.8895C6.37594 16.5569 5.98982 17.1991 5.25857 17.6281C4.23572 18.2632 3.12697 17.9725 2.2765 17.5472C2.02951 17.4237 1.9294 17.1234 2.0529 16.8764C2.17639 16.6294 2.47673 16.5293 2.72372 16.6528C3.47143 17.0267 4.15977 17.1356 4.73511 16.776L4.74817 16.7681C5.21269 16.4972 5.47491 16.0911 5.63628 15.5855C5.80097 15.0695 5.84934 14.4888 5.89977 13.8834L5.90158 13.8617L5.9017 13.8601C5.96268 13.0665 6.13332 10.2206 6.25799 8.00001H4.5C4.22386 8.00001 4 7.77616 4 7.50001C4 7.22387 4.22386 7.00001 4.5 7.00001H6.31329C6.36513 6.04551 6.40011 5.34155 6.40011 5.20001C6.40011 5.18722 6.4006 5.17443 6.40158 5.16167C6.45615 4.45234 6.64934 3.75742 7.04101 3.20004C7.44148 2.63014 8.03483 2.22725 8.82408 2.10583L8.82939 2.10501C9.21543 2.04986 9.55067 2.04522 9.87317 2.10972C10.1973 2.17456 10.4769 2.30297 10.7574 2.47127C10.9941 2.61334 11.0709 2.92047 10.9289 3.15726C10.7868 3.39405 10.4797 3.47083 10.2429 3.32876C10.0234 3.19706 9.85289 3.12547 9.67705 3.0903ZM16.8536 9.14646C17.0488 9.34172 17.0488 9.65831 16.8536 9.85357L13.6336 13.0735C14.1838 14.0592 14.6955 14.9745 14.8284 15.1959C14.9068 15.3267 14.9727 15.4426 15.0279 15.5397L15.0691 15.6121C15.1345 15.7267 15.18 15.8025 15.223 15.8629C15.2826 15.9464 15.3398 16.006 15.4667 16.0763C15.6832 16.1131 15.7474 16.0685 15.7733 16.0506C15.8033 16.0298 15.8417 15.9938 15.8977 15.9242C15.9363 15.8761 15.9682 15.8324 16.0072 15.7786C16.0334 15.7427 16.0628 15.7023 16.0996 15.6532C16.2653 15.4323 16.5787 15.3875 16.7996 15.5532C17.0206 15.7189 17.0653 16.0323 16.8996 16.2532C16.8825 16.276 16.8636 16.3023 16.8429 16.331C16.7295 16.4884 16.5623 16.7203 16.3436 16.872C16.0275 17.0913 15.6508 17.1395 15.1951 17.0421C15.1538 17.0333 15.1137 17.0193 15.0759 17.0003C14.7723 16.8484 14.5778 16.6805 14.4088 16.4435C14.3335 16.3379 14.2662 16.2227 14.2008 16.1082L14.1557 16.029C14.1011 15.9329 14.0426 15.83 13.9709 15.7104C13.8405 15.4931 13.3921 14.6923 12.8986 13.8085L9.85355 16.8536C9.65829 17.0488 9.34171 17.0488 9.14645 16.8536C8.95118 16.6583 8.95118 16.3417 9.14645 16.1465L12.392 12.9009C11.8704 11.9666 11.3978 11.122 11.2709 10.9104C11.2643 10.8995 11.2581 10.8882 11.2524 10.8768C11.1585 10.689 11.0489 10.4939 10.9246 10.3282C10.8051 10.1687 10.6928 10.065 10.5954 10.0107C10.5337 9.99038 10.4782 9.99685 10.3896 10.0522C10.2708 10.1264 10.141 10.2647 9.99964 10.4532C9.83395 10.6741 9.52055 10.7189 9.29964 10.5532C9.07872 10.3875 9.03395 10.0741 9.19964 9.85319C9.35829 9.64165 9.57845 9.37993 9.85964 9.20419C10.1623 9.015 10.5549 8.9168 10.9853 9.08895C10.9982 9.0941 11.0108 9.09978 11.0232 9.10598C11.3214 9.25507 11.5522 9.49832 11.7246 9.72819C11.8957 9.95628 12.0333 10.204 12.1384 10.4127C12.2732 10.6397 12.6749 11.3566 13.127 12.1659L16.1464 9.14646C16.3417 8.9512 16.6583 8.9512 16.8536 9.14646Z" fill="#212121"/>
</svg>

<svg xmlns="http://www.w3.org/2000/svg" width="20" height="20"><path d="M9.677 3.09c-.177-.035-.391-.04-.703.005a1.6 1.6 0 0 0-1.115.68c-.256.364-.412.863-.46 1.447-.002.19-.035.87-.084 1.778H9.5a.5.5 0 0 1 0 1H7.26c-.126 2.25-.3 5.145-.361 5.938v.003l-.006.07c-.048.572-.104 1.252-.304 1.879-.213.667-.6 1.31-1.33 1.738-1.023.635-2.132.345-2.983-.08a.5.5 0 1 1 .448-.895c.747.374 1.436.483 2.011.123l.013-.008c.465-.27.727-.677.888-1.183.165-.516.213-1.096.264-1.702l.002-.021v-.002c.06-.793.231-3.64.356-5.86H4.5a.5.5 0 1 1 0-1h1.813a75.962 75.962 0 0 0 .089-1.838c.054-.71.247-1.405.639-1.962.4-.57.994-.973 1.783-1.094l.005-.001c.386-.055.722-.06 1.044.005.324.065.604.193.884.361a.5.5 0 0 1-.514.858 1.744 1.744 0 0 0-.566-.239Zm7.177 6.056a.5.5 0 0 1 0 .708l-3.22 3.22a162.495 162.495 0 0 0 1.394 2.466l.041.072c.065.115.111.19.154.25.06.084.117.144.244.214.216.037.28-.008.306-.025a.637.637 0 0 0 .125-.127 3.56 3.56 0 0 0 .11-.145c.025-.036.055-.077.092-.126a.5.5 0 0 1 .8.6l-.057.078c-.113.157-.28.39-.5.541-.316.22-.692.268-1.148.17a.495.495 0 0 1-.12-.042 1.686 1.686 0 0 1-.666-.556 3.963 3.963 0 0 1-.208-.336l-.045-.079a134.132 134.132 0 0 1-1.257-2.22l-3.045 3.045a.5.5 0 0 1-.708-.707l3.246-3.246a149.943 149.943 0 0 0-1.14-2.024 3.644 3.644 0 0 0-.327-.549 1.142 1.142 0 0 0-.33-.317c-.061-.02-.117-.014-.205.041-.12.074-.249.213-.39.401a.5.5 0 1 1-.8-.6c.158-.211.378-.473.66-.649.302-.189.695-.287 1.125-.115.013.005.026.01.038.017.298.15.53.392.702.622.17.228.308.476.413.685.135.227.537.944.989 1.753l3.02-3.02a.5.5 0 0 1 .707 0Z"/></svg>
